public/assets/wave.svg

<svg width="1460" height="570" viewBox="0 0 1460 570" fill="none" xmlns="http://www.w3.org/2000/svg">
<g clip-path="url(#clip0_52_1471)">
<path d="M0 191.143V3.64335C104.216 -16.3567 366.957 52.6433 536.736 49.6433C706.515 46.6433 892.44 20.6433 1036.29 23.6433C1151.36 26.0433 1366.71 55.31 1460 69.6433V191.143H0Z" fill="#5EB7FF"/>
<path d="M0 269V54C50.0666 63.1667 168.678 83.7 242.592 92.5C334.985 103.5 469.374 98 612.656 81.5C753.952 65.2289 994.223 95.6354 1125.95 112.305L1131.44 113C1235.79 126.2 1393.96 126.833 1460 125.5V269H0Z" fill="#7D91EA"/>
<path d="M0 269V113C454.444 145.5 589.98 123 723.024 127.5C856.068 132 1037.95 180 1248.23 202C1458.51 224 1460 202 1460 202V269H0Z" fill="#A571CD"/>
<path d="M0 322V167.573C173.762 129.591 482.738 174.561 624.145 203.556C767.948 233.042 1001.13 230.543 1157.41 222.547C1313.7 214.551 1418.39 240.872 1460 250.034V322H0Z" fill="#BF4CA0"/>
<path d="M495.67 252.5C356.422 247.7 107.203 270.167 0 282V326.5V506.5C48.6833 461.333 257.588 372.3 703.741 377.5C1149.89 382.7 1393.81 508 1460 570V326.5V294.5H1038.36C888.163 294.5 669.729 258.5 495.67 252.5Z" fill="#C62368"/>
</g>
<defs>
<clipPath id="clip0_52_1471">
<rect width="1460" height="570" fill="white"/>
</clipPath>
</defs>
</svg>

<svg width="1460" height="570" fill="none" xmlns="http://www.w3.org/2000/svg"><g clip-path="url(#a)"><path d="M0 191.143V3.643c104.216-20 366.957 49 536.736 46s355.704-29 499.554-26c115.07 2.4 330.42 31.667 423.71 46v121.5H0Z" fill="#5EB7FF"/><path d="M0 269V54c50.067 9.167 168.678 29.7 242.592 38.5 92.393 11 226.782 5.5 370.064-11 141.296-16.271 381.567 14.135 513.294 30.805l5.49.695c104.35 13.2 262.52 13.833 328.56 12.5V269H0Z" fill="#7D91EA"/><path d="M0 269V113c454.444 32.5 589.98 10 723.024 14.5C856.068 132 1037.95 180 1248.23 202c210.28 22 211.77 0 211.77 0v67H0Z" fill="#A571CD"/><path d="M0 322V167.573c173.762-37.982 482.738 6.988 624.145 35.983 143.803 29.486 376.985 26.987 533.265 18.991 156.29-7.996 260.98 18.325 302.59 27.487V322H0Z" fill="#BF4CA0"/><path d="M495.67 252.5C356.422 247.7 107.203 270.167 0 282v224.5c48.683-45.167 257.588-134.2 703.741-129C1149.89 382.7 1393.81 508 1460 570V294.5h-421.64c-150.197 0-368.631-36-542.69-42Z" fill="#C62368"/></g><defs><clipPath id="a"><path fill="#fff" d="M0 0h1460v570H0z"/></clipPath></defs></svg>
